!!!OTL: Drei Seidenweber (2-52) S. 165
!!!id: P0925
**kern
*clefG2
*k[f#]
*G:
{8d
=1
8d
16g
16g
16g
16g
8g
8a
8b
=2
4b
8a
4a}
8r
=3
{8.g
16f#
8g
4d}
=4
{8b
=5
8b
8dd
8dd
16dd
16dd
16dd
16dd
8ee
=6
4cc
8cc
4cc}
=7
{8dd
=8
8b
8b
16b
16b
8dd
8cc
8b
=9
8a
8dd
8dd
4dd}
=10
{8b
=11
4g
8a
8.a
16g
8a}
=12
{4.g
4.a
=13
4b
8b
8dd
8cc
8a
=14
[2g
8g]}
==
*-
!!!minrhy: 16
!!!meters: 6/8 ]  ZZ[6
!!!cut: Drei Seidenweber (2-52) S. 165
!!!reg: Lothringen
!!!trd: PINCK, Louis: Verklingende Weisen, Bd 2, Metz 1928
!!!rhy1: X_  X_XXXXX_X_X_  X__X_X__0_
!!!rhy2: X_.XX_X__
!!!key: P0925  16  G 6/8 ]  ZZ[6
!!!mod: HEPTATONIK IONISCH]  AMBITUS[9
!!!kad: 2-54521
!!!akz: -5132_-5_3544_3525_12_123511_
!!!fot: 'a__b__c__d__e__f__
!!!for: 'a__b__c__d__e__f__
!!!fok: '/__\__^a_V__\__^__
!! PHRAS[VORWIEGEND AUFTAKTIG]
!!!fkt: Werbung, Beischlaf
!! LOTH VKL
!! PR[34] 2K[4] 2G[6] 3K[9] 3G[6] 4A[6] 4Ü[0] 5A[0] 6K[0] 6G[0]
!! 7K[0] 7G[0] 8A[0] MEHR[0] SI[30] ABS[53] SR[9] SP[21]
!! ST[12] 2k[9] 2g[19] 3k[4] 3g[0] 4d[2] 4ü[0] 5d[0] 6k[0] 6g[2]
!! 7k[0] 7g[0] 8d[0] mehr[0] si[36] dm[-6] sr[28] sp[8]
!! 1F[42] 2F[53] 3F[5] 4F[0] LF[0] 2P[0] 3P[0] 4P[0] TRI[0] DF[3] AB[57]
!! TF[0] U3K[0] U3[0] U4[0] U4Ü[0] U5[7] U6K[0] U6[0] U7K[0] U7[2]
!! N1[19] N2K[0] N2[24] N3K[0] N3[28] N4[11] N4Ü[0] N5[7] N6K[0] N6[2]
!!!n7k: 0] N7[0] O1[0] O2K[0] O2[0] O3K[0] O3[0] HÖ[0
